site/static/img/storybook_logo.svg

<svg width="15" height="19" viewBox="0 0 15 19" fill="none" xmlns="http://www.w3.org/2000/svg">
<path d="M0.557067 16.6622L0.00064671 1.7367C-0.0177297 1.24377 0.357714 0.826021 0.846752 0.795251L13.4574 0.00180131C13.9551 -0.0295187 14.3839 0.35133 14.415 0.85245C14.4162 0.87133 14.4168 0.890243 14.4168 0.90916V17.1731C14.4168 17.6752 14.0124 18.0823 13.5137 18.0823C13.5002 18.0823 13.4867 18.082 13.4732 18.0814L1.41898 17.5363C0.949521 17.5151 0.574691 17.135 0.557067 16.6622Z" fill="#FF4785"/>
<mask id="mask0_1652_96394" style="mask-type:alpha" maskUnits="userSpaceOnUse" x="0" y="0" width="15" height="19">
<path d="M0.557067 16.6622L0.00064671 1.7367C-0.0177297 1.24377 0.357714 0.826021 0.846752 0.795251L13.4574 0.00180131C13.9551 -0.0295187 14.3839 0.35133 14.415 0.85245C14.4162 0.87133 14.4168 0.890243 14.4168 0.90916V17.1731C14.4168 17.6752 14.0124 18.0823 13.5137 18.0823C13.5002 18.0823 13.4867 18.082 13.4732 18.0814L1.41898 17.5363C0.949521 17.5151 0.574691 17.135 0.557067 16.6622Z" fill="white"/>
</mask>
<g mask="url(#mask0_1652_96394)">
<path d="M10.6459 2.2226L10.732 0.136984L12.4638 0L12.5384 2.15082C12.541 2.22568 12.4829 2.28848 12.4085 2.29109C12.3767 2.29221 12.3455 2.28193 12.3204 2.26209L11.6526 1.73246L10.8619 2.33628C10.8026 2.38155 10.7181 2.36987 10.6731 2.31019C10.6542 2.28507 10.6446 2.2541 10.6459 2.2226ZM8.43104 6.81545C8.43104 7.16916 10.7977 6.99964 11.1154 6.75118C11.1154 4.34254 9.83156 3.07684 7.48069 3.07684C5.12981 3.07684 3.81266 4.36224 3.81266 6.29033C3.81266 9.64843 8.31433 9.7127 8.31433 11.5444C8.31433 12.0585 8.06424 12.3638 7.51403 12.3638C6.7971 12.3638 6.51366 11.9952 6.54701 10.742C6.54701 10.4701 3.81266 10.3853 3.72929 10.742C3.51701 13.7791 5.39658 14.6551 7.54738 14.6551C9.63149 14.6551 11.2654 13.5368 11.2654 11.5123C11.2654 7.91314 6.69706 8.00955 6.69706 6.22606C6.69706 5.50302 7.23059 5.40662 7.54738 5.40662C7.88084 5.40662 8.48106 5.46579 8.43104 6.81545Z" fill="white"/>
</g>
</svg>

<svg xmlns="http://www.w3.org/2000/svg" width="15" height="19" fill="none"><path fill="#FF4785" d="M.557 16.662.001 1.737A.907.907 0 0 1 .847.795l12.61-.793a.905.905 0 0 1 .96.907v16.264a.906.906 0 0 1-.944.908L1.42 17.536a.906.906 0 0 1-.862-.874Z"/><path fill="#fff" d="m10.646 2.223.086-2.086L12.464 0l.074 2.15a.135.135 0 0 1-.218.112l-.667-.53-.791.604a.134.134 0 0 1-.216-.113ZM8.43 6.815c0 .354 2.367.185 2.684-.064 0-2.408-1.283-3.674-3.634-3.674S3.813 4.362 3.813 6.29c0 3.358 4.501 3.423 4.501 5.254 0 .514-.25.82-.8.82-.717 0-1-.369-.967-1.622 0-.272-2.734-.357-2.818 0-.212 3.037 1.668 3.913 3.818 3.913 2.084 0 3.718-1.118 3.718-3.143 0-3.599-4.568-3.502-4.568-5.286 0-.723.534-.82.85-.82.334 0 .934.06.884 1.41Z"/></svg>
